static/logos/theNorthFace-wordmark-black.svg

<svg width="50" height="23" viewBox="0 0 50 23" fill="none" xmlns="http://www.w3.org/2000/svg">
<g clip-path="url(#clip0_1204_59)">
<path fill-rule="evenodd" clip-rule="evenodd" d="M32.6148 1.54053V0.273438H27.5458V7.23048H32.6148V6.08293H28.9563V4.19424H32.1602V2.95106H28.9563V1.54053H32.6148ZM31.2043 7.9477V10.6253H28.4304V7.9477H26.9966V14.8812H28.4304V11.7729H31.2043V14.8812H32.6148V7.9477H31.2043ZM32.6148 16.8409V15.5984H27.5458V22.6504H32.6148V21.384H28.9563V19.5189H32.1602V18.3716H28.9563V16.8409H32.6148ZM26.7333 0.273438H25.3227V2.95106H22.5495V0.273438H21.139V7.23048H22.5495V4.12252H25.3227V7.23048H26.7333V0.273438ZM15.0665 0.273438V1.54053H17.2181V7.23048H18.6287V1.54053H20.7803V0.273438H15.0665ZM10.6197 7.75644C8.39633 7.75644 7.22487 9.02353 7.22487 11.4143C7.22487 13.9245 8.39633 15.1677 10.6197 15.1677C12.8431 15.1677 13.9907 13.9245 13.9907 11.4143C13.9907 9.02353 12.8431 7.75644 10.6197 7.75644ZM8.75494 11.4143C8.75494 9.81247 9.37653 9.02353 10.6197 9.02353C11.9585 9.02353 12.5801 9.81247 12.5801 11.4143C12.5801 13.112 11.9585 13.9245 10.6197 13.9245C9.37653 13.9245 8.75494 13.112 8.75494 11.4143ZM5.19275 7.9477V12.8487L2.41949 7.9477H0.91333V14.8812H2.25214V10.0037L5.09712 14.8812H6.60328V7.9477H5.19275ZM11.7673 18.4669V16.8409H15.3295V15.5984H10.3567V22.6504H11.7673V19.7101H14.8991V18.4669H11.7673ZM26.4706 9.19088V7.9477H20.7803V9.19088H22.9081V14.8812H24.3425V9.19088H26.4706ZM17.6485 12.2274C18.1027 12.2274 18.4613 12.2988 18.6287 12.4901L18.8917 14.8812H20.4935V14.7138C20.3261 14.6179 20.2305 14.1879 20.2305 13.3747C20.2305 12.3948 19.8719 11.8685 19.3459 11.6055C20.0631 11.3186 20.4217 10.7927 20.4217 9.9081C20.4217 8.66492 19.7045 7.9477 18.1984 7.9477H14.7079V14.8812H16.1423V12.2274H17.6485ZM16.1423 11.0557V9.19088H17.9115C18.6287 9.19088 18.9873 9.45386 18.9873 10.0755C18.9873 10.697 18.6287 11.0557 17.8397 11.0557H16.1423ZM18.6287 15.5984H16.9313L14.4449 22.6504H15.9511L16.5009 21.1207H19.0829L19.5133 22.6504H21.0433L18.6287 15.5984ZM17.7441 17.1995L18.6287 19.9734H16.8595L17.7441 17.1995ZM25.5861 17.9167H26.9966C26.9245 17.2955 26.7333 16.7695 26.3026 16.3149C25.6814 15.789 24.9641 15.4304 23.9839 15.4304C23.0037 15.4304 22.2865 15.789 21.6649 16.4109C21.139 17.0322 20.7803 17.9167 20.7803 19.0885C20.7803 21.5749 21.8323 22.8174 23.8883 22.8174C25.6814 22.8174 26.6612 21.9328 26.9966 20.2358H25.5861C25.3948 21.0483 24.7729 21.4789 23.9839 21.4789C22.8125 21.4789 22.2865 20.6903 22.2865 19.1599C22.2865 17.4867 22.8125 16.6736 23.9839 16.6736C24.7729 16.6736 25.2274 17.1281 25.5861 17.9167ZM7.87037 22.5551C8.10945 22.5551 8.3007 22.4591 8.44448 22.3399C8.56402 22.1965 8.65931 22.0052 8.65931 21.7426C8.65931 21.4554 8.56368 21.2641 8.44448 21.1446C8.30104 21.0254 8.10978 20.9533 7.87037 20.9533H7.84646C7.55958 20.9533 7.36832 21.0254 7.24878 21.1446C7.12957 21.2638 7.05752 21.4554 7.05752 21.7426V21.7658C7.05752 22.0052 7.12924 22.1965 7.24878 22.3399C7.36832 22.4591 7.55991 22.5551 7.84646 22.5551H7.87037ZM7.84646 22.7464C7.51176 22.7464 7.27269 22.6272 7.10534 22.4591C6.93798 22.2918 6.86626 22.053 6.86626 21.7658V21.7426C6.86626 21.4072 6.93798 21.1685 7.10534 21.0015C7.27269 20.8344 7.51176 20.762 7.84646 20.762H7.87037C8.15726 20.762 8.39633 20.8341 8.56369 21.0015C8.73104 21.1688 8.85057 21.4075 8.85057 21.7426C8.85057 22.0534 8.73104 22.2918 8.56369 22.4591C8.473 22.5507 8.36499 22.6232 8.24594 22.6725C8.1269 22.7219 7.99922 22.7469 7.87037 22.7464H7.84646ZM7.94209 21.6466H7.966C8.06163 21.6466 8.10945 21.5985 8.10945 21.4793V21.4554C8.10945 21.4554 8.08554 21.4554 8.08554 21.4315C8.06163 21.4075 8.01382 21.4075 7.94209 21.4075H7.67911V21.6469L7.94209 21.6466ZM8.10945 21.814L8.3007 22.0534C8.32461 22.1009 8.3007 22.1487 8.2768 22.1726C8.22898 22.2207 8.15726 22.1965 8.13335 22.1726L7.89428 21.8379H7.67911V22.1005C7.67911 22.1487 7.6313 22.1965 7.58348 22.1965C7.53567 22.1965 7.48785 22.1483 7.48785 22.1005V21.3119C7.48785 21.2638 7.53567 21.2166 7.58348 21.2166H7.966C8.06163 21.2166 8.15726 21.2399 8.20507 21.288C8.22898 21.3119 8.25289 21.3119 8.25289 21.3362C8.3007 21.3843 8.3007 21.4314 8.3007 21.4796C8.3007 21.6705 8.25289 21.7658 8.10945 21.814ZM33.5947 0.273438C38.0418 0.273438 41.8905 1.89914 44.9985 5.00709C48.2021 8.21068 49.8042 12.0359 49.8042 16.5062V22.6504H43.3014V16.3149C43.3014 13.8292 42.4168 11.6772 40.6238 9.9081C40.1931 9.45386 39.7392 9.09525 39.2133 8.73664C37.7788 7.75644 36.0814 7.32611 34.3122 7.32611H33.595V0.273438H33.5947ZM42.6792 22.6504H37.6108V17.7494C37.6108 16.9369 37.3481 16.3149 36.7983 15.789C36.2723 15.2398 35.5551 14.9765 34.8379 14.9765H33.5947V7.9477H34.3119C36.1764 7.9477 37.7781 8.47366 39.2129 9.54949C39.5715 9.71684 39.9301 10.0755 40.1928 10.3384C41.8905 12.0362 42.6792 13.9966 42.6792 16.3153V22.6504ZM36.9895 22.6504H33.5944V15.5984H34.8379C35.3877 15.5984 35.9137 15.789 36.3676 16.2196C36.7262 16.5783 36.9895 17.1281 36.9895 17.7494V22.6504Z" fill="black"/>
</g>
<defs>
<clipPath id="clip0_1204_59">
<rect width="50" height="23" fill="white"/>
</clipPath>
</defs>
</svg>

<svg xmlns="http://www.w3.org/2000/svg" width="139.13" height="64" fill="none" viewBox="0 0 50 23"><g clip-path="url(#a)"><path fill="#000" fill-rule="evenodd" d="M32.615 1.54V.274h-5.07V7.23h5.07V6.083h-3.659V4.194h3.204V2.951h-3.204v-1.41zm-1.41 6.408v2.677H28.43V7.948h-1.433v6.933h1.433v-3.108h2.774v3.108h1.41V7.948zm1.41 8.893v-1.243h-5.07v7.052h5.07v-1.266h-3.659v-1.865h3.204v-1.147h-3.204V16.84zM26.733.273h-1.41v2.678h-2.774V.273h-1.41V7.23h1.41V4.123h2.774V7.23h1.41zm-11.667 0v1.268h2.152v5.69h1.41V1.54h2.152V.273zM10.62 7.756c-2.224 0-3.395 1.268-3.395 3.658 0 2.51 1.171 3.754 3.395 3.754 2.223 0 3.37-1.243 3.37-3.754 0-2.39-1.147-3.658-3.37-3.658m-1.865 3.658c0-1.602.622-2.39 1.865-2.39 1.339 0 1.96.788 1.96 2.39 0 1.698-.621 2.51-1.96 2.51-1.243 0-1.865-.812-1.865-2.51M5.193 7.948v4.9l-2.774-4.9H.913v6.933h1.34v-4.877l2.844 4.877h1.506V7.948zm6.574 10.519V16.84h3.563v-1.243h-4.973v7.052h1.41v-2.94H14.9v-1.243zM26.471 9.19V7.948h-5.69V9.19h2.127v5.69h1.435v-5.69zm-8.823 3.036c.455 0 .813.072.98.263l.264 2.391h1.602v-.167c-.168-.096-.264-.526-.264-1.34 0-.98-.358-1.506-.884-1.769.717-.286 1.076-.812 1.076-1.697 0-1.243-.718-1.96-2.224-1.96h-3.49v6.933h1.434v-2.654zm-1.506-1.171V9.19h1.77c.717 0 1.075.263 1.075.884 0 .622-.358.98-1.147.98zm2.487 4.542H16.93l-2.486 7.052h1.506l.55-1.53h2.582l.43 1.53h1.53zm-.885 1.601.885 2.774h-1.77zm7.842.718h1.41c-.072-.622-.263-1.148-.693-1.602-.622-.526-1.339-.885-2.32-.885s-1.697.359-2.318.98c-.526.622-.885 1.507-.885 2.678 0 2.487 1.052 3.73 3.108 3.73 1.793 0 2.773-.885 3.109-2.582h-1.41c-.192.812-.814 1.243-1.603 1.243-1.172 0-1.698-.789-1.698-2.32 0-1.672.526-2.485 1.698-2.485.789 0 1.243.454 1.602 1.243M7.87 22.555c.24 0 .43-.096.574-.215a.9.9 0 0 0 .215-.597c0-.288-.095-.479-.215-.598a.87.87 0 0 0-.574-.192h-.024c-.286 0-.478.072-.597.192-.12.119-.191.31-.191.598v.023c0 .24.071.43.19.574.12.12.312.215.598.215zm-.024.191c-.334 0-.573-.119-.74-.287s-.24-.406-.24-.693v-.023c0-.336.072-.574.24-.741s.406-.24.74-.24h.024c.287 0 .526.072.694.24s.287.406.287.74a.99.99 0 0 1-.605.93 1 1 0 0 1-.376.074zm.096-1.1h.024c.096 0 .143-.047.143-.167v-.024s-.023 0-.023-.023c-.024-.024-.072-.024-.144-.024H7.68v.239zm.167.168.192.24c.024.047 0 .095-.024.119-.048.048-.12.024-.144 0l-.239-.335H7.68v.262c0 .049-.048.096-.096.096-.047 0-.095-.048-.095-.096v-.788c0-.048.048-.095.095-.095h.383c.096 0 .191.023.24.071.023.024.047.024.047.048.048.048.048.095.048.144 0 .19-.048.286-.192.334M33.595.274c4.447 0 8.296 1.625 11.404 4.733 3.203 3.204 4.805 7.029 4.805 11.5v6.143h-6.503v-6.335c0-2.486-.884-4.638-2.677-6.407a8.4 8.4 0 0 0-1.41-1.171c-1.435-.98-3.133-1.41-4.902-1.41h-.717zm9.084 22.376h-5.068v-4.9c0-.813-.263-1.435-.813-1.961-.526-.55-1.243-.812-1.96-.812h-1.243v-7.03h.717c1.864 0 3.466.527 4.9 1.602.36.168.718.527.98.79 1.699 1.697 2.487 3.658 2.487 5.976zm-5.69 0h-3.395v-7.052h1.244c.55 0 1.076.191 1.53.622.358.358.621.908.621 1.53z" clip-rule="evenodd"/></g><defs><clipPath id="a"><path fill="#fff" d="M0 0h50v23H0z"/></clipPath></defs></svg>
